X:8854
T:La Buena Vara (CT 166)
C:Tradicional
S:Música Tradicional Asturiana, (C) Tello & Tito. Asturies, 2001.
S:http://pagina.de/MusTradAst <telloytito@asturies.org>
N:Canción de empleo indeterminado, dictada por Mercedes García García, de treinta y cuatro años, de Cabañaquinta, ayuntamiento de Ayer.
O:Cabañaquinta (Ayer)
A:Asturies
Z:Cancioneru de Torner 166
M:3/4
L:1/8
Q:1/4=80
W:Si quieres la buena vara, (bis)
W:córtala en el buen salguero, (bis)
W:si quieres la buena moza,
W:échai el güeyu primeru.
K:Gm
GA
|^F3 A Bd|(d3/2c/4d/4) c2 GA|
^F3 A Bd|(d3/2c/4d/4) c2 BA|
^F3 B {d}cB|(A3/2B/4A/4)G2 :||


